src/symbolic/places/mail-outbox-symbolic.svg

<?xml version="1.0" encoding="UTF-8" standalone="no"?>
<svg
   xmlns:dc="http://purl.org/dc/elements/1.1/"
   xmlns:cc="http://creativecommons.org/ns#"
   xmlns:rdf="http://www.w3.org/1999/02/22-rdf-syntax-ns#"
   xmlns:svg="http://www.w3.org/2000/svg"
   xmlns="http://www.w3.org/2000/svg"
   xmlns:sodipodi="http://sodipodi.sourceforge.net/DTD/sodipodi-0.dtd"
   xmlns:inkscape="http://www.inkscape.org/namespaces/inkscape"
   height="16"
   width="16"
   version="1.1"
   id="svg6"
   sodipodi:docname="mail-outbox-symbolic.svg"
   inkscape:version="0.92.4 (5da689c313, 2019-01-14)">
  <metadata
     id="metadata12">
    <rdf:RDF>
      <cc:Work
         rdf:about="">
        <dc:format>image/svg+xml</dc:format>
        <dc:type
           rdf:resource="http://purl.org/dc/dcmitype/StillImage" />
      </cc:Work>
    </rdf:RDF>
  </metadata>
  <defs
     id="defs10" />
  <sodipodi:namedview
     pagecolor="#ffffff"
     bordercolor="#666666"
     borderopacity="1"
     objecttolerance="10"
     gridtolerance="10"
     guidetolerance="10"
     inkscape:pageopacity="0"
     inkscape:pageshadow="2"
     inkscape:window-width="1366"
     inkscape:window-height="711"
     id="namedview8"
     showgrid="true"
     inkscape:snap-bbox="true"
     inkscape:bbox-nodes="true"
     inkscape:snap-bbox-edge-midpoints="true"
     inkscape:zoom="22.627417"
     inkscape:cx="6.397924"
     inkscape:cy="4.7941645"
     inkscape:window-x="0"
     inkscape:window-y="27"
     inkscape:window-maximized="1"
     inkscape:current-layer="svg6">
    <inkscape:grid
       type="xygrid"
       id="grid822" />
  </sodipodi:namedview>
  <path
     inkscape:connector-curvature="0"
     id="path2"
     style="color:#bebebe;overflow:visible;fill:#666666;marker:none"
     overflow="visible"
     d="m 7.9995678,1.02775 c -0.141796,-0.00314 -0.278202,0.054336 -0.375,0.158 l -2.5,3 c -0.05537,0.071127 -0.08686,0.1579188 -0.09,0.248 -0.014,0.266 0.188,0.556 0.465,0.564 h 1.5 v 3.5 c 0,0.262 0.238,0.5 0.5,0.5 h 1 c 0.03126,0.003 0.06274,0.003 0.094,0 0.2353,-0.051714 0.403694,-0.2590951 0.406,-0.5 v -3.5 h 1.4999992 c 0.37,-0.01 0.606,-0.524 0.375,-0.812 l -2.4999992,-3 c -0.096723,-0.103771 -0.233179,-0.1612648 -0.375,-0.158 z"
     sodipodi:nodetypes="ccccccsscccccccc" />
  <path
     style="opacity:1;fill:#666666;fill-opacity:1;fill-rule:evenodd;stroke:none;stroke-width:2;stroke-linecap:square;stroke-linejoin:miter;stroke-miterlimit:4;stroke-dasharray:none;stroke-opacity:1;paint-order:fill markers stroke"
     d="M 2 2 C 1.446 2 1 2.446 1 3 L 1 14 C 1 14.554 1.446 15 2 15 L 14 15 C 14.554 15 15 14.554 15 14 L 15 3 C 15 2.446 14.554 2 14 2 L 10.083984 2 L 10.875 2.9492188 C 10.886844 2.9639852 10.883145 2.9841436 10.892578 3 L 14 3 L 14 10 L 10 10 A 2 2 0 0 1 8 12 A 2 2 0 0 1 6 10 L 2 10 L 2 3 L 5.1074219 3 C 5.1166802 2.9843183 5.1137227 2.9637053 5.125 2.9492188 L 5.9160156 2 L 2 2 z M 2 11 L 3 11 L 5.1738281 11 C 5.5973349 12.197859 6.7294788 12.999045 8 13 C 9.2698043 12.998218 10.400952 12.197185 10.824219 11 L 13 11 L 14 11 L 14 12 L 14 14 L 13 14 L 3 14 L 2 14 L 2 12 L 2 11 z "
     id="rect824" />
</svg>

<svg xmlns="http://www.w3.org/2000/svg" height="16" width="16"><path style="marker:none" overflow="visible" d="M8 1.028a.498.498 0 0 0-.375.158l-2.5 3a.428.428 0 0 0-.09.248c-.014.266.188.556.465.564H7v3.5c0 .262.238.5.5.5h1a.492.492 0 0 0 .094 0 .517.517 0 0 0 .406-.5v-3.5h1.5c.37-.01.606-.524.375-.812l-2.5-3A.497.497 0 0 0 8 1.028z" color="#5d656b" fill="#5d656b"/><path d="M2 2c-.554 0-1 .446-1 1v11c0 .554.446 1 1 1h12c.554 0 1-.446 1-1V3c0-.554-.446-1-1-1h-3.916l.791.95c.012.014.008.034.018.05H14v7h-4a2 2 0 0 1-2 2 2 2 0 0 1-2-2H2V3h3.107c.01-.016.007-.036.018-.05L5.916 2H2zm0 9h3.174A3 3 0 0 0 8 13a3 3 0 0 0 2.824-2H14v3H2v-3z" fill="#5d656b" fill-rule="evenodd" paint-order="fill markers stroke"/></svg>
